<?xml version="1.0" encoding="UTF-8"?>
<map version="1.10" tiledversion="1.12.2" orientation="orthogonal" renderorder="right-down" width="30" height="20" tilewidth="16" tileheight="16" infinite="0" nextlayerid="3" nextobjectid="1">
 <tileset firstgid="1" source="swamp.tsx"/>
 <layer id="1" name="Ground" width="30" height="20">
  <data encoding="csv">
9,10,9,1,1,1,1,1,1,1,1,1,1,1,1,1,1,1,33,43,37,1,1,1,1,1,1,10,9,10,
10,9,10,1,1,1,1,1,1,1,1,1,1,1,1,1,1,1,33,43,37,1,1,1,1,1,1,9,10,9,
9,10,9,1,1,1,1,1,1,1,1,1,1,1,1,1,1,1,33,43,37,1,1,1,1,1,1,10,9,10,
10,9,10,1,1,1,1,1,1,1,1,1,1,1,1,1,1,1,33,43,37,1,1,1,1,1,1,9,10,9,
9,10,9,1,1,1,1,1,1,1,1,1,1,1,1,1,1,1,33,43,37,1,1,1,1,1,1,10,9,10,
10,9,10,1,1,1,1,1,1,1,1,1,1,1,1,1,1,1,33,43,28,20,1,1,1,1,1,9,10,9,
9,10,9,1,1,1,1,1,1,1,1,1,1,1,1,1,1,1,41,42,43,28,20,1,1,1,1,10,9,10,
10,9,10,1,1,1,1,1,1,1,1,1,1,1,1,1,1,1,2,41,42,43,28,20,1,1,1,9,10,9,
9,10,9,1,1,1,1,1,1,1,1,1,1,1,1,1,1,1,1,2,41,42,43,28,29,1,1,10,9,10,
10,9,10,1,1,1,1,1,1,1,1,1,1,1,1,1,1,1,1,1,1,41,42,43,37,1,1,9,10,9,
9,10,9,1,1,1,1,1,1,1,1,1,1,1,1,1,1,1,1,1,1,1,33,43,37,1,1,10,9,10,
10,9,10,1,1,1,1,1,1,1,1,1,1,1,1,1,1,1,1,1,1,1,33,43,37,1,1,9,10,9,
9,10,9,1,1,1,1,1,1,1,1,1,1,1,1,1,1,1,1,1,1,1,33,43,37,1,1,10,9,10,
10,9,10,1,1,1,1,1,1,1,1,1,1,1,1,1,1,1,1,1,1,1,33,43,37,1,1,9,10,9,
9,10,9,1,1,1,1,1,1,1,1,1,1,1,1,1,1,1,1,1,1,1,33,43,37,1,1,10,9,10,
10,9,10,1,1,1,1,1,1,1,1,1,1,1,1,1,1,1,1,1,1,1,33,43,37,1,1,9,10,9,
9,10,9,1,1,1,1,1,1,1,1,1,1,1,1,1,1,1,1,1,1,1,33,43,37,1,1,10,9,10,
10,9,10,1,1,1,1,1,1,1,1,1,1,1,1,1,1,1,1,1,1,1,33,43,37,1,1,9,10,9,
9,10,9,1,1,1,1,1,1,1,1,1,1,1,1,1,1,1,1,1,1,1,33,43,37,1,1,10,9,10,
10,9,10,1,1,1,1,1,1,1,1,1,1,1,1,1,1,1,1,1,1,1,33,43,37,1,1,9,10,9
  </data>
 </layer>
 <layer id="2" name="Decor" width="30" height="20">
  <data encoding="csv">
0,0,0,0,0,0,0,46,47,0,0,0,0,0,98,99,100,0,0,0,0,0,0,0,54,55,0,0,0,0,
0,0,0,0,0,0,0,54,55,0,0,46,47,105,106,123,108,109,0,0,0,0,0,0,62,63,0,0,0,0,
0,0,0,0,0,0,0,62,63,12,0,54,55,113,114,123,116,117,0,0,0,0,0,0,0,0,0,0,0,0,
0,0,0,0,0,0,11,0,0,0,0,62,63,121,122,123,124,125,0,0,0,11,0,0,0,0,0,0,0,0,
0,0,0,0,0,0,0,0,0,0,0,0,0,0,130,131,132,0,0,0,0,0,0,0,46,47,0,0,0,0,
0,0,0,0,0,46,47,0,0,0,0,0,0,13,0,0,0,0,0,0,0,0,0,0,54,55,0,0,0,0,
0,0,0,0,0,54,55,0,0,0,0,0,0,0,0,0,0,0,0,0,0,0,0,0,62,63,0,0,0,0,
0,0,0,0,0,62,63,0,0,0,0,0,0,0,0,12,0,0,0,0,0,0,0,0,0,0,0,0,0,0,
0,0,0,0,0,12,0,0,0,0,5,0,0,0,0,0,0,0,0,0,0,0,0,0,0,10,0,0,0,0,
0,0,0,0,0,0,0,0,0,0,13,0,0,0,0,0,0,0,0,5,0,0,0,0,0,0,0,0,0,0,
0,0,0,0,0,0,0,0,0,0,0,0,0,0,0,0,0,0,0,13,0,0,0,0,0,0,0,0,0,0,
0,0,0,0,0,0,0,0,0,0,0,10,0,0,0,0,0,0,0,0,0,0,0,0,0,0,5,0,0,0,
0,0,0,0,0,0,0,5,0,0,0,0,0,0,0,0,12,0,0,0,0,0,0,0,0,0,13,0,0,0,
0,0,0,0,0,0,0,13,0,0,0,0,0,0,22,23,24,0,0,0,0,0,0,0,0,0,0,0,0,0,
0,0,0,0,0,0,0,0,0,0,0,0,11,0,30,31,32,0,0,0,5,0,0,0,0,0,0,0,0,0,
0,0,0,0,0,0,0,0,0,0,0,0,0,105,110,110,110,99,99,100,13,0,0,0,0,0,10,0,0,0,
0,0,0,0,0,0,0,0,0,0,0,0,0,113,123,123,123,123,123,117,0,0,0,0,0,0,0,0,0,0,
0,0,0,0,0,0,12,0,0,0,0,5,0,121,162,123,123,123,123,117,0,0,0,0,0,5,0,0,0,0,
0,0,0,0,0,0,0,0,0,0,0,13,0,0,121,162,118,119,124,125,0,0,0,0,0,13,0,0,0,0,
0,0,0,0,0,0,0,0,0,0,10,0,0,0,0,130,131,131,132,0,0,0,0,0,0,0,0,0,0,0
  </data>
 </layer>
</map>
