<?xml version="1.0" encoding="UTF-8"?>
<map version="1.10" tiledversion="1.12.2" orientation="orthogonal" renderorder="right-down" width="30" height="20" tilewidth="16" tileheight="16" infinite="0" nextlayerid="4" nextobjectid="1">
 <tileset firstgid="1" source="haunted_woods.tsx"/>
 <tileset firstgid="257" source="citrus_outdoors.tsx"/>
 <layer id="2" name="Floor" width="30" height="20">
  <data encoding="csv">
258,258,258,258,258,258,258,258,258,258,258,258,258,258,258,258,258,258,265,266,267,257,257,257,257,257,257,258,258,258,
258,258,258,258,258,258,258,258,258,258,258,258,258,258,258,258,258,258,273,274,275,257,257,257,257,257,257,258,258,258,
258,258,258,258,258,258,258,258,258,258,258,258,257,258,258,257,258,258,273,274,275,259,259,258,258,258,258,258,258,258,
258,258,258,258,258,258,258,258,258,258,258,258,258,258,258,258,258,258,273,274,275,259,259,258,258,258,258,258,258,258,
258,258,258,258,258,258,258,258,258,258,258,258,258,257,258,258,258,258,273,274,275,258,258,258,258,258,258,258,258,258,
258,258,258,258,258,258,258,258,258,258,258,258,258,258,258,257,258,258,273,274,275,258,258,258,258,257,258,258,258,258,
258,258,258,258,258,258,258,258,258,258,258,258,258,258,258,258,258,258,273,274,275,258,258,258,258,258,258,258,258,258,
258,258,258,258,258,258,258,258,258,258,258,258,258,258,258,258,258,258,273,274,275,258,258,258,258,258,258,258,258,258,
258,258,258,258,258,258,258,258,258,258,258,258,265,266,266,266,266,266,284,274,275,258,258,258,258,258,258,258,258,258,
258,258,258,258,258,258,258,258,258,258,258,258,273,274,274,274,274,274,274,274,275,258,258,258,258,258,258,258,258,258,
258,258,258,258,258,258,258,258,258,258,258,258,273,274,293,282,282,282,282,282,283,258,258,258,258,258,258,258,258,258,
258,258,258,258,258,258,258,258,258,258,258,258,273,274,275,258,257,257,257,258,258,258,258,258,258,258,258,258,258,258,
258,258,258,258,258,258,258,258,258,258,258,258,273,274,275,258,258,258,258,258,258,258,258,257,258,258,258,258,258,258,
258,258,258,258,258,258,258,258,258,258,258,258,273,274,275,258,258,258,258,258,258,258,258,258,258,258,258,258,258,258,
258,258,258,258,258,258,258,258,258,258,258,258,273,274,275,258,258,258,258,258,257,258,258,258,258,258,258,258,258,258,
258,258,258,258,258,258,258,258,258,258,258,258,273,274,275,258,258,258,258,258,258,258,258,258,258,257,258,258,258,258,
258,258,258,258,258,258,258,258,258,258,258,258,273,274,275,258,258,258,257,258,258,258,258,258,258,258,258,258,258,258,
258,258,258,258,258,258,258,258,258,258,258,258,273,274,275,258,258,258,258,258,258,258,258,258,258,258,258,258,258,258,
258,258,258,258,258,258,258,258,258,258,258,258,273,274,275,258,258,258,258,258,258,257,258,258,258,258,258,258,258,258,
258,258,258,258,258,258,258,258,258,258,258,258,281,282,283,258,258,258,258,258,258,258,258,258,258,258,258,258,258,258
</data>
 </layer>
 <layer id="1" name="Trees1" width="30" height="20">
  <data encoding="csv">
325,321,322,323,324,57,58,0,0,59,60,0,0,0,0,0,0,394,0,0,0,62,59,60,0,35,0,57,58,153,
344,270,330,331,0,65,66,0,394,67,68,0,0,0,0,0,0,402,0,0,0,70,67,68,7,0,0,65,66,153,
352,337,338,339,308,73,74,0,402,75,76,0,0,0,0,0,0,0,0,0,0,78,75,76,0,7,0,73,74,153,
324,345,346,347,316,0,330,331,270,57,58,35,0,394,0,0,0,0,0,0,0,62,0,7,0,57,58,0,34,153,
344,321,322,323,324,337,338,339,308,65,66,0,0,402,0,0,0,0,0,0,0,70,0,0,0,65,66,0,0,153,
352,325,334,335,270,345,346,347,316,73,74,0,0,0,0,0,0,300,0,0,0,78,0,34,394,73,74,0,394,161,
324,341,342,343,344,321,322,323,324,59,60,270,0,297,0,0,300,300,0,0,0,62,59,60,402,0,0,0,402,0,
0,349,350,351,352,0,334,335,325,67,68,300,300,0,0,0,300,300,0,0,0,70,67,68,0,7,0,0,7,7,
344,321,322,323,324,341,342,343,344,75,76,300,0,0,0,0,0,0,0,0,0,78,75,76,57,58,35,35,0,7,
352,0,270,331,0,349,350,351,352,57,58,0,0,0,0,0,0,0,0,0,0,59,60,7,65,66,0,0,0,25,
324,337,338,339,308,321,322,323,324,65,66,0,0,0,0,0,0,0,63,0,0,67,68,0,73,74,0,7,7,33,
0,345,346,347,316,0,330,331,325,73,74,0,0,0,0,300,300,300,71,59,60,75,76,0,7,7,0,34,0,41,
340,321,322,323,324,337,338,339,340,59,60,394,0,0,0,300,300,57,58,67,68,0,0,0,7,59,60,0,0,0,
348,0,334,270,0,345,346,347,348,67,68,402,0,0,0,300,0,65,66,75,76,7,0,7,0,67,68,7,57,58,
324,341,342,343,344,321,322,323,324,75,76,0,0,0,0,57,58,73,74,59,60,0,59,60,394,75,76,0,65,66,
0,349,350,351,352,0,330,331,325,57,58,0,0,0,0,65,66,57,58,67,68,0,67,68,402,7,0,394,73,74,
0,321,322,323,324,337,338,339,340,65,66,0,0,0,0,73,74,65,66,75,76,394,75,76,7,0,0,402,7,0,
340,0,0,0,0,345,346,347,348,73,74,394,0,0,0,57,58,73,74,57,58,402,7,0,0,0,59,60,7,7,
348,270,0,0,270,321,322,323,324,0,0,402,0,0,0,65,66,63,63,65,66,0,0,0,34,0,67,68,7,0,
324,0,0,0,0,0,0,0,0,0,270,0,0,0,0,73,74,71,71,73,74,0,7,7,0,0,75,76,0,0
</data>
 </layer>
</map>
